components/Common/Svg/svgs/supportMaintenance.svg

<svg
  width="90"
  height="90"
  viewBox="0 0 90 90"
  fill="none"
  xmlns="http://www.w3.org/2000/svg"
>
  <circle
    opacity="0.5"
    cx="45"
    cy="45"
    r="45"
    fill="#FFE603"
  ></circle>
  <path
    d="M53.9034 32.7919L47.3468 39.3484L48.2307 43.7679L52.6501 44.6517L59.2067 38.0952L59.2073 38.0949C60.0189 40.0106 60.213 42.1316 59.7626 44.1628C59.3122 46.1939 58.2398 48.0341 56.6946 49.4272C55.1494 50.8203 53.2083 51.697 51.1415 51.9353C49.0747 52.1735 46.985 51.7614 45.1634 50.7564L45.1636 50.7561L36.4001 60.9017C35.6967 61.6043 34.7431 61.9989 33.7489 61.9986C32.7547 61.9983 31.8013 61.6032 31.0983 60.9002C30.3953 60.1972 30.0003 59.2438 30 58.2496C29.9997 57.2555 30.3942 56.3018 31.0968 55.5984L41.2424 46.8351L41.2422 46.8352C40.2371 45.0136 39.8251 42.9239 40.0633 40.8571C40.3016 38.7903 41.1783 36.8492 42.5714 35.304C43.9645 33.7588 45.8047 32.6864 47.8358 32.236C49.867 31.7856 51.988 31.9797 53.9037 32.7913L53.9034 32.7919Z"
    stroke="black"
    stroke-width="2"
    stroke-linecap="round"
    stroke-linejoin="round"
  ></path>
</svg>

<svg width="90" height="90" viewBox="0 0 90 90" fill="none" xmlns="http://www.w3.org/2000/svg"><circle opacity=".5" cx="45" cy="45" r="45" fill="#FFE603"/><path d="m53.903 32.792-6.556 6.556.884 4.42 4.42.884 6.556-6.557h0a10.003 10.003 0 0 1-14.044 12.661h0L36.4 60.902a3.75 3.75 0 0 1-5.303-5.304l10.145-8.763h0a10.004 10.004 0 0 1 12.662-14.044h0Z" stroke="#000" stroke-width="2" stroke-linecap="round" stroke-linejoin="round"/></svg>
